Newaita-dark/apps/128/wps-office-wppmain.svg

<?xml version="1.0" encoding="UTF-8"?>
<svg xmlns="http://www.w3.org/2000/svg" xmlns:xlink="http://www.w3.org/1999/xlink" width="128pt" height="128pt" viewBox="0 0 128 128" version="1.1">
<defs>
<linearGradient id="linear0" gradientUnits="userSpaceOnUse" x1="254" y1="233.5" x2="254" y2="254.666672" gradientTransform="matrix(0.250024,0,0,0.250024,-0.0000152602,53.75514)">
<stop offset="0" style="stop-color:rgb(0%,0%,0%);stop-opacity:0.27451;"/>
<stop offset="1" style="stop-color:rgb(0%,0%,0%);stop-opacity:0;"/>
</linearGradient>
<radialGradient id="radial0" gradientUnits="userSpaceOnUse" cx="450.908936" cy="189.579361" fx="450.908936" fy="189.579361" r="21.166656" gradientTransform="matrix(0.000000696681,-0.31253,-0.562554,-0.000000406154,195.292181,254.38133)">
<stop offset="0" style="stop-color:rgb(0%,0%,0%);stop-opacity:0.313725;"/>
<stop offset="0.222222" style="stop-color:rgb(0%,0%,0%);stop-opacity:0.27451;"/>
<stop offset="1" style="stop-color:rgb(0%,0%,0%);stop-opacity:0;"/>
</radialGradient>
<radialGradient id="radial1" gradientUnits="userSpaceOnUse" cx="450.908936" cy="189.579361" fx="450.908936" fy="189.579361" r="21.166656" gradientTransform="matrix(-0.000000696681,0.31253,0.562554,0.000000406154,-70.92613,-30.109915)">
<stop offset="0" style="stop-color:rgb(0%,0%,0%);stop-opacity:0.313725;"/>
<stop offset="0.222222" style="stop-color:rgb(0%,0%,0%);stop-opacity:0.27451;"/>
<stop offset="1" style="stop-color:rgb(0%,0%,0%);stop-opacity:0;"/>
</radialGradient>
<radialGradient id="radial2" gradientUnits="userSpaceOnUse" cx="450.908936" cy="189.579361" fx="450.908936" fy="189.579361" r="21.166656" gradientTransform="matrix(-0.000000696681,-0.31253,0.562554,-0.000000406154,-70.92613,254.38133)">
<stop offset="0" style="stop-color:rgb(0%,0%,0%);stop-opacity:0.313725;"/>
<stop offset="0.222222" style="stop-color:rgb(0%,0%,0%);stop-opacity:0.27451;"/>
<stop offset="1" style="stop-color:rgb(0%,0%,0%);stop-opacity:0;"/>
</radialGradient>
<radialGradient id="radial3" gradientUnits="userSpaceOnUse" cx="450.908936" cy="189.579361" fx="450.908936" fy="189.579361" r="21.166656" gradientTransform="matrix(0.000000696681,0.31253,-0.562554,0.000000406154,195.292173,-30.109917)">
<stop offset="0" style="stop-color:rgb(0%,0%,0%);stop-opacity:0.313725;"/>
<stop offset="0.222222" style="stop-color:rgb(0%,0%,0%);stop-opacity:0.27451;"/>
<stop offset="1" style="stop-color:rgb(0%,0%,0%);stop-opacity:0;"/>
</radialGradient>
<filter id="alpha" filterUnits="objectBoundingBox" x="0%" y="0%" width="100%" height="100%">
  <feColorMatrix type="matrix" in="SourceGraphic" values="0 0 0 0 1 0 0 0 0 1 0 0 0 0 1 0 0 0 1 0"/>
</filter>
<mask id="mask0">
  <g filter="url(#alpha)">
<rect x="0" y="0" width="128" height="128" style="fill:rgb(0%,0%,0%);fill-opacity:0.988235;stroke:none;"/>
  </g>
</mask>
<linearGradient id="linear1" gradientUnits="userSpaceOnUse" x1="940" y1="1695.118164" x2="940" y2="175.118118" gradientTransform="matrix(0.0661521,0,0,0.0661521,0,0)">
<stop offset="0" style="stop-color:rgb(93.333333%,93.333333%,93.333333%);stop-opacity:1;"/>
<stop offset="1" style="stop-color:rgb(96.078431%,96.078431%,96.078431%);stop-opacity:1;"/>
</linearGradient>
<clipPath id="clip1">
  <rect x="0" y="0" width="128" height="128"/>
</clipPath>
<g id="surface5" clip-path="url(#clip1)">
<path style=" stroke:none;fill-rule:nonzero;fill:url(#linear1);" d="M 29.105469 11.585938 C 26.175781 11.585938 23.816406 13.945312 23.816406 16.875 L 23.816406 106.84375 C 23.816406 109.773438 26.175781 112.136719 29.105469 112.136719 L 95.257812 112.136719 C 98.191406 112.136719 100.550781 109.773438 100.550781 106.84375 L 100.550781 35.398438 L 76.738281 11.585938 Z M 82.027344 11.585938 L 100.550781 30.105469 L 100.550781 16.875 C 100.550781 13.945312 98.191406 11.585938 95.257812 11.585938 Z M 82.027344 11.585938 "/>
</g>
<mask id="mask1">
  <g filter="url(#alpha)">
<rect x="0" y="0" width="128" height="128" style="fill:rgb(0%,0%,0%);fill-opacity:0.988235;stroke:none;"/>
  </g>
</mask>
<linearGradient id="linear2" gradientUnits="userSpaceOnUse" x1="940" y1="1695.118164" x2="940" y2="175.118118" gradientTransform="matrix(0.0661521,0,0,0.0661521,0,0)">
<stop offset="0" style="stop-color:rgb(100%,43.921569%,26.27451%);stop-opacity:1;"/>
<stop offset="1" style="stop-color:rgb(100%,54.117647%,39.607843%);stop-opacity:1;"/>
</linearGradient>
<clipPath id="clip2">
  <rect x="0" y="0" width="128" height="128"/>
</clipPath>
<g id="surface8" clip-path="url(#clip2)">
<path style=" stroke:none;fill-rule:nonzero;fill:url(#linear2);" d="M 82.027344 11.585938 L 100.550781 30.105469 L 100.550781 16.875 C 100.550781 13.945312 98.191406 11.585938 95.257812 11.585938 Z M 82.027344 11.585938 "/>
</g>
<mask id="mask2">
  <g filter="url(#alpha)">
<rect x="0" y="0" width="128" height="128" style="fill:rgb(0%,0%,0%);fill-opacity:0.988235;stroke:none;"/>
  </g>
</mask>
<clipPath id="clip3">
  <rect x="0" y="0" width="128" height="128"/>
</clipPath>
<g id="surface11" clip-path="url(#clip3)">
<path style=" stroke:none;fill-rule:nonzero;fill:rgb(100%,100%,100%);fill-opacity:0.392157;" d="M 29.105469 11.585938 C 26.175781 11.585938 23.816406 13.945312 23.816406 16.875 L 23.816406 18.199219 C 23.816406 15.269531 26.175781 12.90625 29.105469 12.90625 L 76.738281 12.90625 L 100.550781 36.722656 L 100.550781 35.398438 L 76.738281 11.585938 Z M 82.027344 11.585938 L 83.351562 12.90625 L 95.257812 12.90625 C 98.191406 12.90625 100.550781 15.269531 100.550781 18.199219 L 100.550781 16.875 C 100.550781 13.945312 98.191406 11.585938 95.257812 11.585938 Z M 82.027344 11.585938 "/>
</g>
<mask id="mask3">
  <g filter="url(#alpha)">
<rect x="0" y="0" width="128" height="128" style="fill:rgb(0%,0%,0%);fill-opacity:0.988235;stroke:none;"/>
  </g>
</mask>
<clipPath id="clip4">
  <rect x="0" y="0" width="128" height="128"/>
</clipPath>
<g id="surface14" clip-path="url(#clip4)">
<path style=" stroke:none;fill-rule:nonzero;fill:rgb(0%,0%,0%);fill-opacity:0.235294;" d="M 82.027344 11.585938 L 100.550781 30.105469 L 100.550781 28.144531 L 83.992188 11.585938 Z M 23.816406 104.878906 L 23.816406 106.84375 C 23.816406 109.773438 26.175781 112.136719 29.105469 112.136719 L 95.257812 112.136719 C 98.191406 112.136719 100.550781 109.773438 100.550781 106.84375 L 100.550781 104.878906 C 100.550781 107.8125 98.191406 110.171875 95.257812 110.171875 L 29.105469 110.171875 C 26.175781 110.171875 23.816406 107.8125 23.816406 104.878906 Z M 23.816406 104.878906 "/>
</g>
<mask id="mask4">
  <g filter="url(#alpha)">
<rect x="0" y="0" width="128" height="128" style="fill:rgb(0%,0%,0%);fill-opacity:0.988235;stroke:none;"/>
  </g>
</mask>
<clipPath id="clip5">
  <rect x="0" y="0" width="128" height="128"/>
</clipPath>
<g id="surface17" clip-path="url(#clip5)">
<path style=" stroke:none;fill-rule:nonzero;fill:rgb(12.941177%,12.941177%,12.941177%);fill-opacity:1;" d="M 29.105469 11.210938 C 25.972656 11.210938 23.441406 13.742188 23.441406 16.875 L 23.441406 106.84375 C 23.441406 109.976562 25.972656 112.511719 29.105469 112.511719 L 95.257812 112.511719 C 98.390625 112.511719 100.925781 109.976562 100.925781 106.84375 L 100.925781 35.398438 C 100.925781 35.300781 100.886719 35.203125 100.816406 35.132812 L 77 11.320312 C 76.929688 11.25 76.835938 11.210938 76.738281 11.210938 Z M 82.027344 11.210938 C 81.875 11.210938 81.738281 11.300781 81.683594 11.441406 C 81.625 11.582031 81.65625 11.742188 81.761719 11.851562 L 100.285156 30.371094 C 100.394531 30.480469 100.554688 30.511719 100.695312 30.453125 C 100.835938 30.394531 100.925781 30.257812 100.925781 30.105469 L 100.925781 16.875 C 100.925781 13.742188 98.390625 11.210938 95.257812 11.210938 Z M 29.105469 11.960938 L 76.582031 11.960938 L 100.175781 35.554688 L 100.175781 106.84375 C 100.175781 109.574219 97.988281 111.761719 95.257812 111.761719 L 29.105469 111.761719 C 26.375 111.761719 24.191406 109.574219 24.191406 106.84375 L 24.191406 16.875 C 24.191406 14.144531 26.375 11.960938 29.105469 11.960938 Z M 82.933594 11.960938 L 95.257812 11.960938 C 97.988281 11.960938 100.175781 14.144531 100.175781 16.875 L 100.175781 29.203125 Z M 82.933594 11.960938 "/>
</g>
<linearGradient id="linear3" gradientUnits="userSpaceOnUse" x1="786.339783" y1="1183.226074" x2="1136.339722" y2="577.008301" gradientTransform="matrix(0.229136,-0.132292,0.132292,0.229136,-19.209612,-92.343376)">
<stop offset="0" style="stop-color:rgb(61.960784%,61.960784%,61.960784%);stop-opacity:1;"/>
<stop offset="1" style="stop-color:rgb(74.117647%,74.117647%,74.117647%);stop-opacity:1;"/>
</linearGradient>
<linearGradient id="linear4" gradientUnits="userSpaceOnUse" x1="243.416656" y1="259.296906" x2="243.416656" y2="-59.085064" gradientTransform="matrix(1,0,0,1.263158,0.0000101725,-94.032906)">
<stop offset="0" style="stop-color:rgb(100%,43.921569%,26.27451%);stop-opacity:1;"/>
<stop offset="1" style="stop-color:rgb(100%,54.117647%,39.607843%);stop-opacity:1;"/>
</linearGradient>
</defs>
<g id="surface1">
<path style=" stroke:none;fill-rule:nonzero;fill:url(#linear0);" d="M 34.398438 112.136719 L 89.96875 112.136719 L 89.96875 117.429688 L 34.398438 117.429688 Z M 34.398438 112.136719 "/>
<path style=" stroke:none;fill-rule:nonzero;fill:url(#radial0);" d="M 89.96875 112.136719 L 100.550781 112.136719 L 100.550781 106.84375 L 89.96875 106.84375 Z M 89.96875 112.136719 "/>
<path style=" stroke:none;fill-rule:nonzero;fill:url(#radial1);" d="M 34.398438 112.136719 L 23.816406 112.136719 L 23.816406 117.429688 L 34.398438 117.429688 Z M 34.398438 112.136719 "/>
<path style=" stroke:none;fill-rule:nonzero;fill:url(#radial2);" d="M 34.398438 112.136719 L 23.816406 112.136719 L 23.816406 106.84375 L 34.398438 106.84375 Z M 34.398438 112.136719 "/>
<path style=" stroke:none;fill-rule:nonzero;fill:url(#radial3);" d="M 89.96875 112.136719 L 100.550781 112.136719 L 100.550781 117.429688 L 89.96875 117.429688 Z M 89.96875 112.136719 "/>
<use xlink:href="#surface5" mask="url(#mask0)"/>
<use xlink:href="#surface8" mask="url(#mask1)"/>
<use xlink:href="#surface11" mask="url(#mask2)"/>
<use xlink:href="#surface14" mask="url(#mask3)"/>
<use xlink:href="#surface17" mask="url(#mask4)"/>
<path style="fill-rule:nonzero;fill:url(#linear3);stroke-width:3;stroke-linecap:round;stroke-linejoin:round;stroke:rgb(12.941177%,12.941177%,12.941177%);stroke-opacity:1;stroke-miterlimit:4;" d="M 283.364923 -97.443867 L 323.048634 -28.700431 L 355.123696 -47.214288 L 378.043382 -60.4474 L 391.792069 -68.384142 C 369.809793 -106.474254 321.439412 -119.426143 283.364923 -97.443867 Z M 277.552978 -75.758438 C 239.462866 -53.760538 226.510978 -5.405781 248.493253 32.668708 C 270.491153 70.758821 318.84591 83.710709 356.920399 61.728433 C 395.010512 39.746157 407.9624 -8.6086 385.980124 -46.698713 L 372.231437 -38.761971 L 349.311751 -25.528859 L 317.236689 -7.015002 Z M 277.552978 -75.758438 " transform="matrix(0.250024,0,0,0.250024,-17.199558,68.308606)"/>
<path style="fill-rule:nonzero;fill:url(#linear4);stroke-width:3;stroke-linecap:round;stroke-linejoin:round;stroke:rgb(0%,0%,0%);stroke-opacity:1;stroke-miterlimit:4;" d="M 95.256528 53.583727 L 402.16472 53.583727 L 402.16472 154.121001 L 95.256528 154.121001 Z M 95.256528 53.583727 " transform="matrix(0.250024,0,0,0.250024,0,53.755133)"/>
</g>
</svg>

<svg xmlns="http://www.w3.org/2000/svg" xmlns:xlink="http://www.w3.org/1999/xlink" width="128pt" height="128pt" viewBox="0 0 128 128"><defs><linearGradient id="i" gradientUnits="userSpaceOnUse" x1="254" y1="233.5" x2="254" y2="254.667" gradientTransform="matrix(.25002 0 0 .25002 0 53.755)"><stop offset="0" stop-opacity=".275"/><stop offset="1" stop-opacity="0"/></linearGradient><radialGradient id="j" gradientUnits="userSpaceOnUse" cx="450.909" cy="189.579" fx="450.909" fy="189.579" r="21.167" gradientTransform="matrix(0 -.31253 -.56255 0 195.292 254.381)"><stop offset="0" stop-opacity=".314"/><stop offset=".222" stop-opacity=".275"/><stop offset="1" stop-opacity="0"/></radialGradient><radialGradient id="k" gradientUnits="userSpaceOnUse" cx="450.909" cy="189.579" fx="450.909" fy="189.579" r="21.167" gradientTransform="matrix(0 .31253 .56255 0 -70.926 -30.11)"><stop offset="0" stop-opacity=".314"/><stop offset=".222" stop-opacity=".275"/><stop offset="1" stop-opacity="0"/></radialGradient><radialGradient id="l" gradientUnits="userSpaceOnUse" cx="450.909" cy="189.579" fx="450.909" fy="189.579" r="21.167" gradientTransform="matrix(0 -.31253 .56255 0 -70.926 254.381)"><stop offset="0" stop-opacity=".314"/><stop offset=".222" stop-opacity=".275"/><stop offset="1" stop-opacity="0"/></radialGradient><radialGradient id="m" gradientUnits="userSpaceOnUse" cx="450.909" cy="189.579" fx="450.909" fy="189.579" r="21.167" gradientTransform="matrix(0 .31253 -.56255 0 195.292 -30.11)"><stop offset="0" stop-opacity=".314"/><stop offset=".222" stop-opacity=".275"/><stop offset="1" stop-opacity="0"/></radialGradient><filter id="a" filterUnits="objectBoundingBox" x="0%" y="0%" width="100%" height="100%"><feColorMatrix in="SourceGraphic" values="0 0 0 0 1 0 0 0 0 1 0 0 0 0 1 0 0 0 1 0"/></filter><mask id="o"><path fill-opacity=".988" d="M0 0h128v128H0z" filter="url(#a)"/></mask><linearGradient id="c" gradientUnits="userSpaceOnUse" x1="940" y1="1695.118" x2="940" y2="175.118" gradientTransform="scale(.06615)"><stop offset="0" stop-color="#eee"/><stop offset="1" stop-color="#f5f5f5"/></linearGradient><clipPath id="b"><path d="M0 0h128v128H0z"/></clipPath><g id="n" clip-path="url(#b)"><path d="M29.105 11.586c-2.93 0-5.289 2.36-5.289 5.289v89.969c0 2.93 2.36 5.293 5.29 5.293h66.152a5.282 5.282 0 0 0 5.293-5.293V35.398L76.738 11.586zm52.922 0l18.524 18.52V16.874c0-2.93-2.36-5.29-5.293-5.29zm0 0" fill="url(#c)"/></g><mask id="q"><path fill-opacity=".988" d="M0 0h128v128H0z" filter="url(#a)"/></mask><linearGradient id="e" gradientUnits="userSpaceOnUse" x1="940" y1="1695.118" x2="940" y2="175.118" gradientTransform="scale(.06615)"><stop offset="0" stop-color="#ff7043"/><stop offset="1" stop-color="#ff8a65"/></linearGradient><clipPath id="d"><path d="M0 0h128v128H0z"/></clipPath><g id="p" clip-path="url(#d)"><path d="M82.027 11.586l18.524 18.52V16.874c0-2.93-2.36-5.29-5.293-5.29zm0 0" fill="url(#e)"/></g><mask id="s"><path fill-opacity=".988" d="M0 0h128v128H0z" filter="url(#a)"/></mask><clipPath id="f"><path d="M0 0h128v128H0z"/></clipPath><g id="r" clip-path="url(#f)"><path d="M29.105 11.586c-2.93 0-5.289 2.36-5.289 5.289v1.324c0-2.93 2.36-5.293 5.29-5.293h47.632l23.813 23.817v-1.325L76.738 11.586zm52.922 0l1.325 1.32h11.906a5.282 5.282 0 0 1 5.293 5.293v-1.324c0-2.93-2.36-5.29-5.293-5.29zm0 0" fill="#fff" fill-opacity=".392"/></g><mask id="u"><path fill-opacity=".988" d="M0 0h128v128H0z" filter="url(#a)"/></mask><clipPath id="g"><path d="M0 0h128v128H0z"/></clipPath><g id="t" clip-path="url(#g)"><path d="M82.027 11.586l18.524 18.52v-1.961l-16.559-16.56zm-58.21 93.293v1.965c0 2.93 2.359 5.293 5.288 5.293h66.153a5.282 5.282 0 0 0 5.293-5.293v-1.965a5.28 5.28 0 0 1-5.293 5.293H29.105c-2.93 0-5.289-2.36-5.289-5.293zm0 0" fill-opacity=".235"/></g><mask id="w"><path fill-opacity=".988" d="M0 0h128v128H0z" filter="url(#a)"/></mask><clipPath id="h"><path d="M0 0h128v128H0z"/></clipPath><g id="v" clip-path="url(#h)"><path d="M29.105 11.21a5.658 5.658 0 0 0-5.664 5.665v89.969a5.661 5.661 0 0 0 5.664 5.668h66.153a5.665 5.665 0 0 0 5.668-5.668V35.398a.379.379 0 0 0-.11-.265L77 11.32a.37.37 0 0 0-.262-.11zm52.922 0c-.152 0-.289.09-.343.231a.38.38 0 0 0 .078.41l18.523 18.52a.373.373 0 0 0 .64-.266v-13.23a5.661 5.661 0 0 0-5.667-5.664zm-52.922.75h47.477l23.594 23.595v71.289a4.9 4.9 0 0 1-4.918 4.918H29.105a4.896 4.896 0 0 1-4.914-4.918V16.875a4.893 4.893 0 0 1 4.914-4.914zm53.829 0h12.324a4.896 4.896 0 0 1 4.918 4.915v12.328zm0 0" fill="#212121"/></g><linearGradient id="x" gradientUnits="userSpaceOnUse" x1="786.34" y1="1183.226" x2="1136.34" y2="577.008" gradientTransform="scale(.26458) rotate(-30 -687.57 -39.028)"><stop offset="0" stop-color="#9e9e9e"/><stop offset="1" stop-color="#bdbdbd"/></linearGradient><linearGradient id="y" gradientUnits="userSpaceOnUse" x1="243.417" y1="259.297" x2="243.417" y2="-59.085" gradientTransform="matrix(1 0 0 1.26316 0 -94.033)"><stop offset="0" stop-color="#ff7043"/><stop offset="1" stop-color="#ff8a65"/></linearGradient></defs><path d="M34.398 112.137h55.57v5.293h-55.57zm0 0" fill="url(#i)"/><path d="M89.969 112.137h10.582v-5.293H89.969zm0 0" fill="url(#j)"/><path d="M34.398 112.137H23.816v5.293h10.582zm0 0" fill="url(#k)"/><path d="M34.398 112.137H23.816v-5.293h10.582zm0 0" fill="url(#l)"/><path d="M89.969 112.137h10.582v5.293H89.969zm0 0" fill="url(#m)"/><use xlink:href="#n" mask="url(#o)"/><use xlink:href="#p" mask="url(#q)"/><use xlink:href="#r" mask="url(#s)"/><use xlink:href="#t" mask="url(#u)"/><use xlink:href="#v" mask="url(#w)"/><path d="M283.365-97.444L323.049-28.7l32.075-18.514 22.92-13.233 13.748-7.937c-21.982-38.09-70.353-51.042-108.427-29.06zm-5.812 21.686c-38.09 21.997-51.042 70.352-29.06 108.427 21.998 38.09 70.353 51.042 108.427 29.06C395.01 39.745 407.962-8.61 385.98-46.7l-13.749 7.937-22.92 13.233-32.074 18.514zm0 0" transform="matrix(.25002 0 0 .25002 -17.2 68.309)" fill="url(#x)" stroke-width="3" stroke-linecap="round" stroke-linejoin="round" stroke="#212121"/><path d="M95.257 53.584h306.908V154.12H95.257zm0 0" transform="matrix(.25002 0 0 .25002 0 53.755)" fill="url(#y)" stroke-width="3" stroke-linecap="round" stroke-linejoin="round" stroke="#000"/></svg>
